priv/static/images/languages/javascript.svg

<svg
  width="128"
  height="128"
  viewBox="0 0 128 128"
  fill="none"
  xmlns="http://www.w3.org/2000/svg"
>
  <path d="M1.4082 1.4082H126.592V126.593H1.4082V1.4082Z" fill="#F0DB4F" />
  <path
    d="M116.347 96.7359C115.43 91.0249 111.706 86.2279 100.675 81.7549C96.8431 79.9939 92.5711 78.7329 91.2981 75.8289C90.8461 74.1389 90.7861 73.1869 91.0721 72.1639C91.8931 68.8439 95.8561 67.8089 98.9971 68.7609C101.02 69.4389 102.935 70.9979 104.09 73.4849C109.492 69.9869 109.481 70.0099 113.253 67.6059C111.872 65.4649 111.135 64.4769 110.231 63.5609C106.982 59.9319 102.555 58.0629 95.4751 58.2059L91.7871 58.6829C88.2531 59.5759 84.8851 61.4309 82.9101 63.9179C76.9841 70.6419 78.6741 82.4099 85.8851 87.2529C92.9891 92.5849 103.425 93.7979 104.758 98.7839C106.055 104.888 100.272 106.864 94.5241 106.162C90.2881 105.281 87.9321 103.128 85.3851 99.2129C80.6971 101.926 80.6971 101.926 75.8771 104.698C77.0201 107.197 78.2211 108.328 80.1371 110.493C89.2051 119.691 111.897 119.239 115.967 105.317C116.132 104.839 117.228 101.651 116.347 96.7359ZM69.4621 58.9429H57.7531L57.7051 89.2149C57.7051 95.6529 58.0381 101.555 56.9911 103.364C55.2781 106.922 50.8391 106.481 48.8161 105.791C46.7571 104.779 45.7101 103.34 44.4971 101.306C44.1641 100.722 43.9141 100.27 43.8301 100.235L34.3101 106.065C35.8931 109.314 38.2251 112.134 41.2121 113.966C45.6741 116.644 51.6711 117.465 57.9431 116.025C62.0251 114.836 65.5471 112.373 67.3911 108.624C70.0571 103.709 69.4851 97.7599 69.4611 91.1799C69.5211 80.4449 69.4621 69.7119 69.4621 58.9429Z"
    fill="#323330"
  />
</svg>

<svg xmlns="http://www.w3.org/2000/svg" width="128" height="128" fill="none"><path fill="#F0DB4F" d="M1.408 1.408h125.184v125.185H1.408z"/><path fill="#323330" d="M116.347 96.736c-.917-5.711-4.641-10.508-15.672-14.981-3.832-1.761-8.104-3.022-9.377-5.926-.452-1.69-.512-2.642-.226-3.665.821-3.32 4.784-4.355 7.925-3.403 2.023.678 3.938 2.237 5.093 4.724 5.402-3.498 5.391-3.475 9.163-5.88-1.381-2.14-2.118-3.128-3.022-4.044-3.249-3.63-7.676-5.498-14.756-5.355l-3.688.477c-3.534.893-6.902 2.748-8.877 5.235-5.926 6.724-4.236 18.492 2.975 23.335 7.104 5.332 17.54 6.545 18.873 11.53 1.297 6.105-4.486 8.081-10.234 7.379-4.236-.881-6.592-3.034-9.139-6.95-4.688 2.714-4.688 2.714-9.508 5.486 1.143 2.499 2.344 3.63 4.26 5.795 9.068 9.198 31.76 8.746 35.83-5.176.165-.478 1.261-3.666.38-8.581M69.462 58.943H57.753l-.048 30.272c0 6.438.333 12.34-.714 14.149-1.713 3.558-6.152 3.117-8.175 2.427-2.059-1.012-3.106-2.451-4.319-4.485-.333-.584-.583-1.036-.667-1.071l-9.52 5.83c1.583 3.249 3.915 6.069 6.902 7.901 4.462 2.678 10.46 3.499 16.731 2.059 4.082-1.189 7.604-3.652 9.448-7.401 2.666-4.915 2.094-10.864 2.07-17.444.06-10.735.001-21.468.001-32.237"/></svg>
